Increase/img/get-started/bg-2.svg

<svg width="425" height="186" viewBox="0 0 425 186" fill="none" xmlns="http://www.w3.org/2000/svg">
<path d="M202.705 0C164.877 0 134.21 31.2744 134.21 69.8533H271.2C271.2 31.2744 240.534 0 202.705 0Z" fill="#6E8DFF"/>
<path d="M259.101 33.48C175.713 33.48 108.114 101.766 108.114 186H410.088C410.088 101.766 342.489 33.48 259.101 33.48Z" fill="#6C8BFF"/>
<path d="M82.0175 59.52C36.7205 59.52 0 96.161 0 141.36H164.035C164.035 96.161 127.315 59.52 82.0175 59.52Z" fill="#567AFF"/>
<path d="M367.215 81.8398C335.301 81.8398 309.43 108.488 309.43 141.36H425C425 108.488 399.129 81.8398 367.215 81.8398Z" fill="#567AFF"/>
</svg>

<svg width="425" height="186" fill="none" xmlns="http://www.w3.org/2000/svg"><path d="M202.705 0c-37.828 0-68.495 31.274-68.495 69.853H271.2C271.2 31.274 240.534 0 202.705 0z" fill="#6E8DFF"/><path d="M259.101 33.48c-83.388 0-150.987 68.286-150.987 152.52h301.974c0-84.234-67.599-152.52-150.987-152.52z" fill="#6C8BFF"/><path d="M82.017 59.52C36.721 59.52 0 96.161 0 141.36h164.035c0-45.199-36.72-81.84-82.017-81.84zm285.198 22.32c-31.914 0-57.785 26.648-57.785 59.52H425c0-32.872-25.871-59.52-57.785-59.52z" fill="#567AFF"/></svg>
